X:1
T:Title
%%score { ( 1 3 ) | ( 2 4 ) }
L:1/8
M:4/4
K:G
V:1 treble nm="Grand Piano"
V:3 treble 
V:2 bass 
V:4 bass 
V:1
 z8[Q:1/4=96] | [DB]3 [DB] [^C_B][D=B][Ec][DB] | E6 z2 | [DF]3 [EG] [FA][=F^G][^FA][Fc] | %4
[M:3/4] B6 |[M:1/4] B2 |[M:4/4] d3 d BBAB | c4 z4 | z2 [DG][DG] [DF]2 [CFA]2 |[M:3/4] [B,DG]6 | %10
[M:1/4] z2 |[M:4/4] z2 [G,C]2 [G,C]2 cc | B6 z2 | d3 d edBG |[M:3/4] [FA]6 |[M:1/4] [Fc]2 | %16
[M:4/4] B3 c dBAB | c4 z4 | z2 [DG][DG] [DF]2 [CFA]2 |[M:3/4] [G,B,DG]6 |] %20
V:2
 z4 z2 D2 | G,,B,,D,G, G,,B,,D,A, | C6 z2 | D,F,A,D D,F,A,[K:treble]D |[M:3/4] G6[K:bass] | %5
[M:1/4][K:treble] [G,DG]2 |[M:4/4] [G,B,G]3 [G,B,G] [G,DG][G,DG][G,CF][G,B,=F] | %7
 C,4- [C,C]2[K:treble] GA | B6[K:bass] z2 |[M:3/4] G,,6 |[M:1/4][K:treble] BG | %11
[M:4/4] E6[K:bass][K:treble] z2 | G6 z2 | [G,B,G]3 [G,B,G] [G,CG][G,B,G][G,DG][K:bass][G,B,] | %14
[M:3/4] [D,D]6 |[M:1/4] [D,D]2 |[M:4/4][K:treble] [G,DG]3 [G,CG] [G,B,G][G,DG][G,CF][G,B,=F] | %17
 C,4- [C,C]2[K:treble] GA | B6[K:bass] z2 |[M:3/4] G,,6 |] %20
V:3
 x8 | x8 | z2 G,2 G,2 E2 | x8 |[M:3/4] z2 G,2 G,2 |[M:1/4] x2 |[M:4/4] x8 | E4- [EG]2 z2 | x8 | %9
[M:3/4] x6 |[M:1/4] x2 |[M:4/4] x8 | z2 DD D2 B2 | x8 |[M:3/4] x6 |[M:1/4] x2 |[M:4/4] x8 | %17
 E4- [EG]2 z2 | x8 |[M:3/4] x6 |] %20
V:4
 x8 | x8 | z2 C,2 C,2 C2 | x7[K:treble] x |[M:3/4] z2[K:bass] G,,2 G,,2 |[M:1/4][K:treble] x2 | %6
[M:4/4] x8 | G,4 z4[K:treble] | z2 G,G,[K:bass] G,2 D,2 |[M:3/4] x6 |[M:1/4][K:treble] x2 | %11
[M:4/4] z2[K:bass] C,2 C,2[K:treble] EF | z2 G,G, G,2 [G,DG]2 | x7[K:bass] x |[M:3/4] x6 | %15
[M:1/4] x2 |[M:4/4][K:treble] x8 | G,4 z4[K:treble] | z2[K:bass] G,G, D,2 D,2 |[M:3/4] x6 |] %20

